X: 4
T: Kitty Lie Over
R: jig
M: 6/8
L: 1/8
K: Dmaj
d2 B |:ADD DFA | Add B2 A | ABE D2 D | GFG EFG |
ADD DFA | ADD B2 A | ABE F2 E |[1 EDD d2 B :|[2 EDD D2 d ||
|: fdd ede | fdd d2 e | fdd def | g2 e efg |
fed B2 A | AdF G2 A | ABE F2 E |[1 EFF F2 d :|[2 EDD D3 |]


Tune 948	Setting 26777

